X: 1134
T: Packie Byrne's Varsovienne (Shoe the Donkey)
M: 3/4
L: 1/8
R: varsovienne
K: G Major
|: DG B2 B2 | dB c2 c2 | DF A2 c2 | A2 B2 G2 | 
DG B2 B2 | dB c2 A2 | DF A2 c2 | F2 G4 :|
|: Bd g2 g2 | ag f2 A2 | AB c2 c2 | ed B2 G2 |
Bd g2 g2 | ag f2 A2 | AB c2 e2 | d2 G4 :|
